client/src/images/wavy-loop.svg

<svg width="818" height="643" fill="none" xmlns="http://www.w3.org/2000/svg">
  <path d="M10.2689 375C53.2829 267.792 362.82 318.179 388.769 189c14.1-70.195 156.5-133.5 259-106.5S815.99 1 912.905 1c9.982 223.667 29.653 611-32.636 611-77.861 0-158.521-23.624-214-62.5-68.5-48-182.5-54.5-386 0C76.7689 604-32.7451 482.208 10.2689 375z" stroke="#295689" stroke-width="2"/>
  <path d="M29.0378 390c43.014-107.208 352.5512-56.821 378.5002-186 14.1-70.195 156.5-133.5 259-106.5S834.759 16 931.673 16c9.983 223.667 29.653 611-32.635 611-77.861 0-158.521-23.624-214-62.5-68.5-48-182.5-54.5-386 0C95.5378 619-13.9762 497.208 29.0378 390z" stroke="#295689" stroke-width="2"/>
  <path d="M47.8067 405c43.014-107.208 352.5513-56.821 378.5003-186 14.1-70.195 156.5-133.5 259-106.5S853.528 31 950.442 31c9.982 223.667 29.653 611-32.635 611-77.861 0-158.521-23.624-214-62.5-68.5-48-182.5-54.5-386 0S4.7927 512.208 47.8067 405z" stroke="#295689" stroke-width="2"/>
</svg>

<svg width="818" height="643" viewBox="0 0 818 643" fill="none" xmlns="http://www.w3.org/2000/svg">
<path d="M10.2689 375C53.2829 267.792 362.82 318.179 388.769 189C402.869 118.805 545.269 55.5 647.769 82.5C750.269 109.5 815.99 1 912.905 1C922.887 224.667 942.558 612 880.269 612C802.408 612 721.748 588.376 666.269 549.5C597.769 501.5 483.769 495 280.269 549.5C76.7689 604 -32.7451 482.208 10.2689 375Z" stroke="#295689" stroke-width="2"/>
<path d="M29.0378 390C72.0518 282.792 381.589 333.179 407.538 204C421.638 133.805 564.038 70.5 666.538 97.5C769.038 124.5 834.759 16 931.673 16C941.656 239.667 961.326 627 899.038 627C821.177 627 740.517 603.376 685.038 564.5C616.538 516.5 502.538 510 299.038 564.5C95.5378 619 -13.9762 497.208 29.0378 390Z" stroke="#295689" stroke-width="2"/>
<path d="M47.8067 405C90.8207 297.792 400.358 348.179 426.307 219C440.407 148.805 582.807 85.5 685.307 112.5C787.807 139.5 853.528 31 950.442 31C960.424 254.667 980.095 642 917.807 642C839.946 642 759.286 618.376 703.807 579.5C635.307 531.5 521.307 525 317.807 579.5C114.307 634 4.79269 512.208 47.8067 405Z" stroke="#295689" stroke-width="2"/>
</svg>
